src/static/logos/targetprocess.svg

<?xml version="1.0" encoding="UTF-8" standalone="no"?>
<svg width="256px" height="267px" viewBox="0 0 256 267" version="1.1" xmlns="http://www.w3.org/2000/svg" xmlns:xlink="http://www.w3.org/1999/xlink" preserveAspectRatio="xMidYMid">
    <g>
        <path d="M213.217649,64.4498944 L213.200046,64.4340517 L174.269232,78.6027131 L181.458301,37.8253443 L181.461822,37.8024604 L149.670789,11.1268616 L149.653185,11.1110189 L110.653721,25.3043245 L110.630837,25.313126 L103.438247,66.1133787 L71.7176264,39.4993904 L71.7000234,39.4835477 L32.7005585,53.6768533 L32.6776746,53.6856548 L25.471003,94.5580798 L25.4674824,94.5809637 L57.2039461,121.212555 L18.2942565,135.374175 L18.2713725,135.382977 L11.0647009,176.253641 L11.05942,176.276525 L42.8522134,202.953885 L42.8698164,202.969727 L81.8006296,188.801066 L74.611561,229.576674 L74.6080404,229.599558 L106.400834,256.276917 L106.418437,256.29276 L145.417902,242.099454 L145.440786,242.090653 L152.635135,201.292161 L184.353996,227.906149 L184.371599,227.921992 L223.371064,213.728686 L223.393948,213.719884 L230.600619,172.847459 L230.60414,172.824575 L198.867676,146.192984 L237.777366,132.031364 L237.80025,132.022562 L245.006921,91.1518977 L245.012202,91.1290138 L213.217649,64.4498944 L213.217649,64.4498944 Z M120.916274,174.563753 L159.755552,160.426777 L152.578805,201.131973 L120.916274,174.563753 L120.916274,174.563753 Z M135.157108,92.8400262 L96.3178306,106.975242 L103.494577,66.2718057 L135.157108,92.8400262 L135.157108,92.8400262 Z M57.367654,121.24072 L96.2086919,107.103744 L89.0301851,147.80894 L57.367654,121.24072 L57.367654,121.24072 Z M120.750806,174.535588 L81.9097683,188.672564 L89.088275,147.967367 L120.750806,174.535588 L120.750806,174.535588 Z M89.1058781,147.872311 L96.2984673,107.072058 L135.22928,92.903397 L166.965744,119.533228 L159.773155,160.333481 L120.842342,174.503902 L89.1058781,147.872311 L89.1058781,147.872311 Z M167.041437,119.593078 L198.703968,146.161299 L159.86293,160.298275 L167.041437,119.593078 L167.041437,119.593078 Z M135.320816,92.868191 L174.161854,78.731215 L166.983347,119.436411 L135.320816,92.868191 L135.320816,92.868191 Z M110.704769,25.3764968 L149.635582,11.2060751 L181.372046,37.8359061 L174.177697,78.6361588 L135.246883,92.8065805 L103.51042,66.1767495 L110.704769,25.3764968 L110.704769,25.3764968 Z M25.5572577,94.5492783 L32.7516072,53.7490256 L71.6824204,39.5786039 L103.418884,66.2084349 L96.2245346,107.008688 L57.2937214,121.179109 L25.5572577,94.5492783 L25.5572577,94.5492783 Z M42.8891797,202.874671 L11.152716,176.24308 L18.3470655,135.442827 L57.2778787,121.272405 L89.0143424,147.902236 L81.8199929,188.704249 L42.8891797,202.874671 L42.8891797,202.874671 Z M145.366853,242.027282 L106.43604,256.197704 L74.699576,229.567873 L81.8939255,188.76762 L120.824739,174.597198 L152.561202,201.227029 L145.366853,242.027282 L145.366853,242.027282 Z M230.514365,172.854501 L223.320015,213.654753 L184.389202,227.823415 L152.652738,201.195344 L159.847088,160.395091 L198.777901,146.22467 L230.514365,172.854501 L230.514365,172.854501 Z M237.726317,131.959192 L198.795504,146.129613 L167.05728,119.498022 L174.251629,78.6977693 L213.182443,64.5273476 L244.918906,91.1571786 L237.726317,131.959192 L237.726317,131.959192 Z" fill="#1A1A1A"></path>
        <path d="M238.176954,99.2334388 L142.854904,19.2506499 C138.3855,15.5012091 137.80284,8.83847048 141.552281,4.37082697 C145.307003,-0.0985768466 151.966221,-0.679476121 156.432104,3.06820435 L251.754154,83.0527536 C256.223558,86.8021944 256.806218,93.464933 253.056777,97.9325765 C250.9673,100.421642 247.973028,101.704901 244.961153,101.704901 C242.565384,101.704901 240.157293,100.895163 238.176954,99.2334388 Z" fill="#649791"></path>
        <path d="M104.946825,266.808797 C100.616485,266.808797 96.5554712,264.126099 95.0064064,259.815122 C93.0331092,254.326504 95.8847966,248.27635 101.373415,246.303053 L219.783571,203.74426 C225.268668,201.769202 231.322343,204.620889 233.29564,210.111268 C235.268937,215.599886 232.41725,221.65004 226.928632,223.623337 L108.518476,266.18213 C107.339074,266.608123 106.133268,266.808797 104.946825,266.808797 L104.946825,266.808797 Z" fill="#EFC519"></path>
        <path d="M11.1192703,188.040616 C10.5154871,188.040616 9.90642299,187.989567 9.2903177,187.880428 C3.54293548,186.878817 -0.301561536,181.406042 0.701809938,175.66042 L22.3095027,51.9007098 C23.3128741,46.1550878 28.7874097,42.3105908 34.529511,43.312202 C40.2768933,44.3155735 44.1213903,49.7865885 43.1180188,55.5322104 L21.5103261,179.293681 C20.6160933,184.426718 16.1554909,188.040616 11.1192703,188.040616 L11.1192703,188.040616 Z" fill="#A21C3D"></path>
        <path d="M64.500393,90.9424219 C63.8913289,90.9424219 63.2752236,90.8896129 62.6538374,90.7804742 C56.9099758,89.7683013 53.0742803,84.2902451 54.0864533,78.5446232 L61.2896043,37.6968423 C62.3017773,31.9529807 67.7745526,28.1137646 73.5254554,29.1294582 C79.269317,30.1416312 83.1050125,35.6196873 82.0928395,41.3653093 L74.8896885,82.2130901 C73.9866542,87.3373258 69.5295725,90.9424219 64.500393,90.9424219 L64.500393,90.9424219 Z" fill="#068CBA"></path>
        <path d="M42.8927003,213.484004 C42.2836362,213.484004 41.6675309,213.431195 41.0461447,213.322056 C35.3022831,212.308123 31.4665876,206.830067 32.4787606,201.086205 L39.6819116,160.240185 C40.6940846,154.494563 46.1703804,150.667669 51.9177627,151.672801 C57.6616243,152.686734 61.4973198,158.16479 60.4851468,163.908652 L53.2819958,204.754672 C52.3789615,209.878908 47.9218798,213.484004 42.8927003,213.484004 L42.8927003,213.484004 Z" fill="#531210"></path>
        <path d="M142.435952,62.5681328 C140.040183,62.5681328 137.632091,61.7583944 135.651753,60.0966704 L103.878323,33.4369143 C99.4089188,29.6874735 98.8262593,23.0264952 102.5757,18.5570914 C106.326901,14.0876876 112.98964,13.5067883 117.455523,17.2544688 L149.230713,43.9159852 C153.700117,47.6654259 154.282777,54.3264043 150.533336,58.7958081 C148.443859,61.2848735 145.449587,62.5681328 142.435952,62.5681328 L142.435952,62.5681328 Z" fill="#509F4E"></path>
        <path d="M237.758002,142.552682 C235.362233,142.552682 232.954141,141.741183 230.973803,140.08122 L199.198613,113.419703 C194.729209,109.670262 194.146549,103.007524 197.89599,98.5398803 C201.650712,94.0704765 208.30993,93.4895772 212.775813,97.2372577 L244.551003,123.898774 C249.020407,127.648215 249.603067,134.310954 245.853626,138.778597 C243.764149,141.269423 240.771637,142.552682 237.758002,142.552682 L237.758002,142.552682 Z" fill="#106E66"></path>
        <path d="M191.583551,197.590248 C187.270814,197.590248 183.220362,194.925152 181.658975,190.63882 C179.662794,185.157243 182.489837,179.094767 187.969654,177.102106 L226.946235,162.914082 C232.431332,160.917901 238.490288,163.746704 240.482948,169.22476 C242.479129,174.706337 239.652086,180.768813 234.17227,182.761474 L195.195689,196.949498 C194.003965,197.384293 192.784076,197.590248 191.583551,197.590248 L191.583551,197.590248 Z" fill="#068CBA"></path>
        <path d="M120.828259,185.111475 C118.43249,185.111475 116.024398,184.299977 114.04406,182.641773 L82.2706299,155.980257 C77.8029864,152.229056 77.2203268,145.568077 80.9697676,141.100434 C84.7209687,136.63103 91.3837073,136.053651 95.8495905,139.797811 L127.623021,166.459328 C132.092424,170.210529 132.675084,176.871507 128.925643,181.339151 C126.836166,183.829976 123.841894,185.111475 120.828259,185.111475 L120.828259,185.111475 Z" fill="#92BEAF"></path>
        <path d="M159.820683,170.926971 C159.211619,170.926971 158.595514,170.874162 157.974128,170.765023 C152.228506,169.75109 148.39457,164.273034 149.406743,158.529172 L156.609894,117.681392 C157.623828,111.93929 163.096603,108.098314 168.845745,109.114007 C174.591367,110.12618 178.425303,115.605997 177.41313,121.349859 L170.209979,162.197639 C169.306944,167.321875 164.851623,170.926971 159.820683,170.926971 L159.820683,170.926971 Z" fill="#4B635B"></path>
        <path d="M96.2632612,117.605699 C91.9487639,117.605699 87.8983117,114.942363 86.3369248,110.654271 C84.342504,105.172694 87.1677868,99.1119781 92.6493636,97.1175572 L131.627705,82.9312928 C137.104001,80.9386323 143.169998,83.7621548 145.162658,89.2437316 C147.158839,94.7253084 144.331796,100.786024 138.850219,102.780445 L99.8736382,116.966709 C98.6819146,117.399743 97.4620261,117.605699 96.2632612,117.605699 L96.2632612,117.605699 Z" fill="#B9BC63"></path>
        <path d="M74.6555685,240.149041 C70.3410712,240.149041 66.290619,237.483946 64.7292321,233.195853 C62.7348113,227.716036 65.5600941,221.65356 71.0416709,219.6609 L110.018252,205.472875 C115.499829,203.474934 121.562305,206.303737 123.554965,211.785314 C125.549386,217.26513 122.724103,223.327606 117.242527,225.320267 L78.2659455,239.508292 C77.0742219,239.943086 75.8543334,240.149041 74.6555685,240.149041 L74.6555685,240.149041 Z" fill="#E38B25"></path>
    </g>
</svg>

<svg width="256" height="267" xmlns="http://www.w3.org/2000/svg" preserveAspectRatio="xMidYMid"><path d="M213.218 64.45l-.018-.016-38.93 14.169 7.188-40.778.004-.023-31.791-26.675-.018-.016-39 14.193-.022.01-7.193 40.8-31.72-26.615-.018-.015-39 14.193-.022.009-7.207 40.872-.004.023 31.737 26.632-38.91 14.161-.023.009-7.206 40.87-.006.024 31.793 26.677.018.016L81.8 188.8l-7.188 40.776-.004.023 31.793 26.677.017.016 39-14.194.023-.008 7.194-40.799 31.719 26.614.018.016 39-14.193.022-.01 7.207-40.872.003-.022-31.736-26.632 38.91-14.162.022-.008 7.207-40.871.005-.023-31.794-26.68zm-92.302 110.114l38.84-14.137-7.177 40.705-31.663-26.568zm14.241-81.724l-38.84 14.135 7.178-40.703 31.662 26.568zm-77.79 28.4l38.842-14.136-7.179 40.705-31.662-26.568zm63.384 53.296L81.91 188.673l7.178-40.706 31.663 26.569zm-31.645-26.664l7.192-40.8 38.931-14.169 31.737 26.63-7.193 40.8-38.93 14.17-31.737-26.63zm77.935-28.279l31.663 26.568-38.841 14.137 7.178-40.705zm-31.72-26.725l38.84-14.137-7.178 40.705-31.662-26.568zm-24.616-67.492l38.93-14.17 31.737 26.63-7.194 40.8-38.931 14.17-31.737-26.63 7.195-40.8zM25.557 94.55l7.195-40.8 38.93-14.17 31.737 26.63-7.194 40.8-38.931 14.17-31.737-26.63zM42.89 202.875l-31.736-26.632 7.194-40.8 38.93-14.17 31.737 26.63-7.194 40.801-38.93 14.17zm102.478 39.152l-38.931 14.17-31.736-26.63 7.194-40.8 38.93-14.17 31.737 26.63-7.194 40.8zm85.147-69.172l-7.194 40.8-38.93 14.168-31.737-26.628 7.194-40.8 38.93-14.17 31.737 26.63zm7.212-40.896l-38.93 14.17-31.739-26.631 7.195-40.8 38.93-14.17 31.737 26.63-7.193 40.801z" fill="#1A1A1A"/><path d="M238.177 99.233l-95.322-79.982c-4.47-3.75-5.052-10.413-1.303-14.88 3.755-4.47 10.414-5.05 14.88-1.303l95.322 79.985c4.47 3.75 5.052 10.412 1.303 14.88a10.543 10.543 0 01-8.096 3.772c-2.396 0-4.804-.81-6.784-2.472z" fill="#649791"/><path d="M104.947 266.809c-4.33 0-8.392-2.683-9.94-6.994-1.974-5.488.878-11.539 6.366-13.512l118.41-42.559c5.486-1.975 11.54.877 13.513 6.367 1.973 5.489-.879 11.539-6.367 13.512l-118.41 42.56c-1.18.425-2.386.626-3.572.626z" fill="#EFC519"/><path d="M11.12 188.04c-.605 0-1.214-.05-1.83-.16-5.747-1.001-9.592-6.474-8.588-12.22L22.31 51.9c1.003-5.745 6.477-9.59 12.22-8.588 5.747 1.004 9.591 6.475 8.588 12.22L21.51 179.294c-.894 5.133-5.355 8.747-10.39 8.747z" fill="#A21C3D"/><path d="M64.5 90.942c-.609 0-1.225-.052-1.846-.162-5.744-1.012-9.58-6.49-8.568-12.235l7.204-40.848c1.012-5.744 6.485-9.583 12.235-8.568 5.744 1.013 9.58 6.49 8.568 12.236L74.89 82.213c-.903 5.124-5.36 8.73-10.39 8.73z" fill="#068CBA"/><path d="M42.893 213.484c-.61 0-1.225-.053-1.847-.162-5.744-1.014-9.58-6.492-8.567-12.236l7.203-40.846c1.012-5.745 6.488-9.572 12.236-8.567 5.744 1.014 9.58 6.492 8.567 12.236l-7.203 40.846c-.903 5.124-5.36 8.729-10.39 8.729z" fill="#531210"/><path d="M142.436 62.568c-2.396 0-4.804-.81-6.784-2.471l-31.774-26.66c-4.47-3.75-5.052-10.41-1.302-14.88 3.75-4.47 10.414-5.05 14.88-1.303l31.775 26.662c4.47 3.75 5.052 10.41 1.302 14.88a10.544 10.544 0 01-8.097 3.772z" fill="#509F4E"/><path d="M237.758 142.553c-2.396 0-4.804-.812-6.784-2.472l-31.775-26.661c-4.47-3.75-5.052-10.412-1.303-14.88 3.755-4.47 10.414-5.05 14.88-1.303L244.55 123.9c4.47 3.75 5.052 10.412 1.303 14.88a10.537 10.537 0 01-8.096 3.774z" fill="#106E66"/><path d="M191.584 197.59c-4.313 0-8.364-2.665-9.925-6.951-1.996-5.482.83-11.544 6.31-13.537l38.977-14.188c5.485-1.996 11.544.833 13.537 6.31 1.996 5.482-.83 11.545-6.31 13.537l-38.977 14.188a10.52 10.52 0 01-3.612.641z" fill="#068CBA"/><path d="M120.828 185.111c-2.396 0-4.804-.811-6.784-2.47l-31.773-26.66c-4.468-3.752-5.05-10.413-1.301-14.88 3.751-4.47 10.414-5.047 14.88-1.303l31.773 26.661c4.47 3.752 5.052 10.413 1.303 14.88a10.538 10.538 0 01-8.098 3.772z" fill="#92BEAF"/><path d="M159.82 170.927c-.608 0-1.224-.053-1.846-.162-5.745-1.014-9.58-6.492-8.567-12.236l7.203-40.848c1.014-5.742 6.487-9.583 12.236-8.567 5.745 1.012 9.58 6.492 8.567 12.236l-7.203 40.848c-.903 5.124-5.358 8.729-10.39 8.729z" fill="#4B635B"/><path d="M96.263 117.606c-4.314 0-8.365-2.664-9.926-6.952-1.994-5.481.83-11.542 6.312-13.536l38.979-14.187c5.476-1.992 11.542.831 13.535 6.313 1.996 5.481-.831 11.542-6.313 13.536l-38.976 14.187a10.557 10.557 0 01-3.61.639z" fill="#B9BC63"/><path d="M74.656 240.149a10.57 10.57 0 01-9.927-6.953c-1.994-5.48.831-11.542 6.313-13.535l38.976-14.188c5.482-1.998 11.544.83 13.537 6.312 1.994 5.48-.83 11.543-6.312 13.535l-38.977 14.188a10.515 10.515 0 01-3.61.641z" fill="#E38B25"/></svg>
